src/2-landmarks/subway-exterior--default.svg

<svg width="1300" height="1000" fill="none" xmlns="http://www.w3.org/2000/svg"><path d="M1300 100H0v7h1300v-7Z" fill="#000"/><path fill-rule="evenodd" clip-rule="evenodd" d="M400 843H0v7h400v50H0v100h1300V900H900v-50h400v-7H900V220c0-11.046-8.954-20-20-20H420c-11.046 0-20 8.954-20 20v623Zm7 57v-50h240v50H407Zm0-57h240V207H422c-8.284 0-15 6.716-15 15v8h200c11.046 0 20 8.954 20 20v290c0 11.046-8.954 20-20 20H407v283Zm247 57v-50h239v50H654Zm0-57h239V560H694c-11.046 0-20-8.954-20-20V250c0-11.046 8.954-20 20-20h199v-8c0-8.284-6.716-15-15-15H654v636Zm42-606h197v316H696c-8.284 0-15-6.716-15-15V252c0-8.284 6.716-15 15-15Zm-289 0v316h198c8.284 0 15-6.716 15-15V252c0-8.284-6.716-15-15-15H407Z" fill="#000"/><path d="M0 560v-7h328c8.284 0 15-6.716 15-15V252c0-8.284-6.716-15-15-15H0v-7h330c11.046 0 20 8.954 20 20v290c0 11.046-8.954 20-20 20H0Zm1300-7v7H970c-11.046 0-20-8.954-20-20V250c0-11.046 8.954-20 20-20h330v7H972c-8.284 0-15 6.716-15 15v286c0 8.284 6.716 15 15 15h328Z" fill="#000"/></svg>

<svg width="1300" height="1000" viewBox="0 0 1300 1000" fill="none" xmlns="http://www.w3.org/2000/svg">
<path d="M1300 100H0V107H1300V100Z" fill="black"/>
<path fill-rule="evenodd" clip-rule="evenodd" d="M400 843H0V850H400V900H0V1000H1300V900H900V850H1300V843H900V220C900 208.954 891.046 200 880 200H420C408.954 200 400 208.954 400 220V843ZM407 900V850H647V900H407ZM407 843H647V207H422C413.716 207 407 213.716 407 222V230H607C618.046 230 627 238.954 627 250V540C627 551.046 618.046 560 607 560H407V843ZM654 900V850H893V900H654ZM654 843H893V560H694C682.954 560 674 551.046 674 540V250C674 238.954 682.954 230 694 230H893V222C893 213.716 886.284 207 878 207H654V843ZM696 237H893V553H696C687.716 553 681 546.284 681 538V252C681 243.716 687.716 237 696 237ZM407 237V553H605C613.284 553 620 546.284 620 538V252C620 243.716 613.284 237 605 237H407Z" fill="black"/>
<path d="M0 560V553H328C336.284 553 343 546.284 343 538V252C343 243.716 336.284 237 328 237H0V230H330C341.046 230 350 238.954 350 250V540C350 551.046 341.046 560 330 560H0Z" fill="black"/>
<path d="M1300 553V560H970C958.954 560 950 551.046 950 540V250C950 238.954 958.954 230 970 230H1300V237H972C963.716 237 957 243.716 957 252V538C957 546.284 963.716 553 972 553H1300Z" fill="black"/>
</svg>
